chrome/WhiteSur/icons/user-not-tracked.svg

<?xml version="1.0" encoding="UTF-8"?>
<svg xmlns="http://www.w3.org/2000/svg" xmlns:xlink="http://www.w3.org/1999/xlink" width="16px" height="16px" viewBox="0 0 16 16" version="1.1">
<g id="surface1">
<path style=" stroke:none;fill-rule:nonzero;fill:rgb(0%,0%,0%);fill-opacity:1;" d="M 7.886719 6 L 10 8.105469 C 10 8.074219 10 8.035156 10 8 C 10 6.894531 9.105469 6 8 6 C 7.960938 6 7.925781 6 7.886719 6 M 5.019531 6.535156 L 6.054688 7.566406 C 6.019531 7.707031 6 7.847656 6 8 C 6 9.105469 6.894531 10 8 10 C 8.148438 10 8.292969 9.980469 8.433594 9.945312 L 9.464844 10.980469 C 9.019531 11.199219 8.527344 11.332031 8 11.332031 C 6.160156 11.332031 4.667969 9.839844 4.667969 8 C 4.667969 7.472656 4.800781 6.980469 5.019531 6.535156 M 1.332031 2.847656 L 3.152344 4.667969 C 2.054688 5.535156 1.1875 6.667969 0.667969 8 C 1.820312 10.925781 4.667969 13 8 13 C 9.035156 13 10.019531 12.800781 10.921875 12.441406 L 11.207031 12.71875 L 13.152344 14.667969 L 14 13.820312 L 2.179688 2 M 8 4.667969 C 9.839844 4.667969 11.332031 6.160156 11.332031 8 C 11.332031 8.425781 11.246094 8.839844 11.09375 9.214844 L 13.046875 11.167969 C 14.046875 10.332031 14.847656 9.238281 15.332031 8 C 14.179688 5.074219 11.332031 3 8 3 C 7.066406 3 6.171875 3.167969 5.332031 3.464844 L 6.78125 4.898438 C 7.160156 4.753906 7.566406 4.667969 8 4.667969 Z M 8 4.667969 "/>
</g>
</svg>

<?xml version="1.0"?>
<svg width="16" height="16" xmlns="http://www.w3.org/2000/svg" xmlns:svg="http://www.w3.org/2000/svg" version="1.1">
 <g class="layer">
  <title>Layer 1</title>
  <g id="surface1">
   <path d="m7.89,6l2.11,2.11c0,-0.04 0,-0.07 0,-0.11c0,-1.11 -0.89,-2 -2,-2c-0.04,0 -0.07,0 -0.11,0m-2.87,0.54l1.03,1.03c-0.03,0.14 -0.05,0.28 -0.05,0.43c0,1.11 0.89,2 2,2c0.15,0 0.29,-0.02 0.43,-0.05l1.03,1.03c-0.44,0.22 -0.93,0.35 -1.46,0.35c-1.84,0 -3.33,-1.49 -3.33,-3.33c0,-0.53 0.13,-1.02 0.35,-1.46m-3.69,-3.69l1.82,1.82c-1.1,0.87 -1.96,2 -2.48,3.33c1.15,2.93 4,5 7.33,5c1.04,0 2.02,-0.2 2.92,-0.56l0.29,0.28l1.94,1.95l0.85,-0.85l-11.82,-11.82m5.82,2.67c1.84,0 3.33,1.49 3.33,3.33c0,0.43 -0.08,0.84 -0.24,1.21l1.96,1.96c1,-0.84 1.8,-1.93 2.28,-3.17c-1.15,-2.93 -4,-5 -7.33,-5c-0.93,0 -1.83,0.17 -2.67,0.46l1.45,1.44c0.38,-0.15 0.79,-0.23 1.22,-0.23zm0,0" fill="#363636" fill-rule="nonzero" id="svg_1"/>
  </g>
 </g>
</svg>
